communes/502.svg

<?xml version="1.0" encoding="UTF-8" standalone="no"?>
<svg
   xmlns:dc="http://purl.org/dc/elements/1.1/"
   xmlns:cc="http://web.resource.org/cc/"
   xmlns:rdf="http://www.w3.org/1999/02/22-rdf-syntax-ns#"
   xmlns:svg="http://www.w3.org/2000/svg"
   xmlns="http://www.w3.org/2000/svg"
   xmlns:xlink="http://www.w3.org/1999/xlink"
   xmlns:sodipodi="http://sodipodi.sourceforge.net/DTD/sodipodi-0.dtd"
   xmlns:inkscape="http://www.inkscape.org/namespaces/inkscape"
   height="763"
   width="603"
   version="1.0"
   id="svg20"
   sodipodi:version="0.32"
   inkscape:version="0.44.1"
   sodipodi:docname="Vinelz-coat of arms.svg"
   sodipodi:docbase="F:\Mis Documentos\Mis imágenes\Encyclopédie\Escudos de Suiza">
  <metadata
     id="metadata31">
    <rdf:RDF>
      <cc:Work
         rdf:about="">
        <dc:format>image/svg+xml</dc:format>
        <dc:type
           rdf:resource="http://purl.org/dc/dcmitype/StillImage" />
        <dc:date>07-AUG-2006</dc:date>
        <dc:creator>
          <cc:Agent>
            <dc:title>Jérôme BLUM (wagner51)</dc:title>
          </cc:Agent>
        </dc:creator>
        <cc:license
           rdf:resource="http://creativecommons.org/licenses/GPL/2.0/" />
        <dc:coverage />
        <dc:description>Gabarit pour le Projet:Blasons de WIkipédia</dc:description>
        <dc:subject>
          <rdf:Bag>
            <rdf:li>blason suisse modèle gabarit projet blasons</rdf:li>
          </rdf:Bag>
        </dc:subject>
        <dc:language>fr</dc:language>
        <dc:title>Gabrit d'un blason suisse</dc:title>
      </cc:Work>
      <cc:License
         rdf:about="http://creativecommons.org/licenses/GPL/2.0/">
        <cc:permits
           rdf:resource="http://web.resource.org/cc/Reproduction" />
        <cc:permits
           rdf:resource="http://web.resource.org/cc/Distribution" />
        <cc:requires
           rdf:resource="http://web.resource.org/cc/Notice" />
        <cc:permits
           rdf:resource="http://web.resource.org/cc/DerivativeWorks" />
        <cc:requires
           rdf:resource="http://web.resource.org/cc/ShareAlike" />
        <cc:requires
           rdf:resource="http://web.resource.org/cc/SourceCode" />
      </cc:License>
    </rdf:RDF>
  </metadata>
  <defs
     id="defs29">
    <linearGradient
       id="linearGradient2893">
      <stop
         style="stop-color:#ffffff;stop-opacity:0.3137255;"
         offset="0"
         id="stop2895" />
      <stop
         id="stop2897"
         offset="0.19"
         style="stop-color:#ffffff;stop-opacity:0.25098041;" />
      <stop
         style="stop-color:#6b6b6b;stop-opacity:0.1254902;"
         offset="0.60000002"
         id="stop2901" />
      <stop
         style="stop-color:#000000;stop-opacity:0.1254902;"
         offset="1"
         id="stop2899" />
    </linearGradient>
    <linearGradient
       id="linearGradient2955">
      <stop
         style="stop-color:white;stop-opacity:0;"
         offset="0"
         id="stop2965" />
      <stop
         style="stop-color:black;stop-opacity:0.64583331;"
         offset="1"
         id="stop2959" />
    </linearGradient>
    <radialGradient
       inkscape:collect="always"
       xlink:href="#linearGradient2893"
       id="radialGradient3236"
       gradientUnits="userSpaceOnUse"
       gradientTransform="matrix(1.215027,1.531577e-24,1.464684e-23,1.266667,-839.1924,-490.4894)"
       cx="858.04236"
       cy="579.93323"
       fx="858.04236"
       fy="579.93323"
       r="300" />
  </defs>
  <sodipodi:namedview
     inkscape:window-height="682"
     inkscape:window-width="1024"
     inkscape:pageshadow="2"
     inkscape:pageopacity="0.0"
     guidetolerance="10.0"
     gridtolerance="10.0"
     objecttolerance="10.0"
     borderopacity="1.0"
     bordercolor="#666666"
     pagecolor="#ffffff"
     id="base"
     inkscape:zoom="0.48301887"
     inkscape:cx="415.80419"
     inkscape:cy="422.89404"
     inkscape:window-x="-4"
     inkscape:window-y="-4"
     inkscape:current-layer="layer2"
     showgrid="true" />
  <desc
     id="desc22">Coat of Arms of Canton of Freiburg (Fribourg)</desc>
  <g
     inkscape:groupmode="layer"
     id="layer1"
     inkscape:label="Fond écu"
     sodipodi:insensitive="true">
    <path
       id="path1899"
       d="M 1.5,1.49998 L 1.5,460.3679 C 1.5,626.6785 135.81456,761.5 301.49999,761.5 C 467.18543,761.5 601.5,626.6785 601.5,460.3679 L 601.5,1.49998 L 1.5,1.49998 z "
       style="fill:#2b5df2;fill-opacity:1" />
  </g>
  <g
     inkscape:groupmode="layer"
     id="layer2"
     inkscape:label="Meubles"
     sodipodi:insensitive="true">
    <g
       id="g19142"
       transform="matrix(-2.84302,0,0,3.709501,2212.008,-824.2149)">
      <path
         sodipodi:nodetypes="cccccc"
         id="path14697"
         d="M 735,323.73197 L 735,318 C 832.08847,263.23165 701.27704,195.94456 680,278 C 698.90559,249.24529 768.8977,271.38908 710.36598,315.8041 L 716.46393,323.73197 L 735,323.73197 z "
         style="fill:white;fill-opacity:1;fill-rule:evenodd;stroke:black;stroke-width:1px;stroke-linecap:butt;stroke-linejoin:miter;stroke-opacity:1" />
      <g
         id="g19138">
        <path
           style="fill:#fcef3c;fill-opacity:1;fill-rule:evenodd;stroke:black;stroke-width:1px;stroke-linecap:butt;stroke-linejoin:miter;stroke-opacity:1"
           d="M 716.82992,332.63402 C 716.82992,332.63402 709.29884,378.66298 708.53607,393 C 707.63054,410.02026 744.15829,410.2915 743.17008,393 C 742.38094,379.19169 733.53607,333 733.53607,333 L 716.82992,332.63402 z "
           id="path16473"
           sodipodi:nodetypes="csscc" />
        <rect
           style="opacity:1;fill:#fcef3c;fill-opacity:1;fill-rule:evenodd;stroke:black;stroke-width:1;stroke-linecap:round;stroke-linejoin:round;stroke-miterlimit:4;stroke-dasharray:none;stroke-opacity:1"
           id="rect15586"
           width="33.827694"
           height="12.725532"
           x="708.58618"
           y="323.08612"
           ry="6.3627658" />
      </g>
    </g>
    <g
       id="g21911"
       transform="matrix(1.196725,0,0,1.236616,-79.95179,-88.64815)">
      <path
         sodipodi:nodetypes="cccccc"
         id="path39837"
         d="M 326.41118,162.99996 L 341.34994,257.93872 L 471.34994,258.76673 L 485.0001,162.99996 L 400.88934,189.47227 L 326.41118,162.99996 z "
         style="fill:white;fill-opacity:1;fill-rule:evenodd;stroke:black;stroke-width:1px;stroke-linecap:butt;stroke-linejoin:miter;stroke-opacity:1" />
      <path
         sodipodi:nodetypes="cccc"
         id="path32700"
         d="M 260.50001,257.235 C 273.42244,458.33621 331.73334,540.00525 403.41557,622.5 C 521.44701,504.91531 532.73108,382.85103 549.34079,254.46572 L 260.50001,257.235 z "
         style="fill:white;fill-opacity:1;fill-rule:evenodd;stroke:black;stroke-width:3;stroke-linecap:butt;stroke-linejoin:miter;stroke-miterlimit:4;stroke-dasharray:none;stroke-opacity:1" />
      <path
         transform="matrix(3.925058,0,0,3.775038,-2699.25,-1088.914)"
         d="M 811.72127 331.21088 A 20.63698 9.8775291 0 1 1  770.44731,331.21088 A 20.63698 9.8775291 0 1 1  811.72127 331.21088 z"
         sodipodi:ry="9.8775291"
         sodipodi:rx="20.63698"
         sodipodi:cy="331.21088"
         sodipodi:cx="791.08429"
         id="path30920"
         style="fill:white;fill-opacity:1;fill-rule:evenodd;stroke:black;stroke-width:0.77935898;stroke-linecap:round;stroke-linejoin:round;stroke-miterlimit:4;stroke-dasharray:none;stroke-opacity:1"
         sodipodi:type="arc" />
      <path
         sodipodi:nodetypes="ccccc"
         id="path32698"
         d="M 535.8751,262.49996 L 470.7501,272.43746 L 465.26205,279.08176 L 536.03135,263.49996 L 535.8751,262.49996 z "
         style="fill:black;fill-opacity:1;fill-rule:evenodd;stroke:black;stroke-width:3;stroke-linecap:butt;stroke-linejoin:miter;stroke-miterlimit:4;stroke-dasharray:none;stroke-opacity:1" />
      <path
         sodipodi:nodetypes="ccccc"
         id="path21024"
         d="M 340,246.29385 C 340.1384,256.90515 340.84698,258.79759 343.53607,266.77829 L 469.3918,266.65453 C 471.04689,261.85438 471.92797,252.99844 472.1959,247.3918 L 340,246.29385 z "
         style="fill:white;fill-opacity:1;fill-rule:evenodd;stroke:white;stroke-width:1px;stroke-linecap:butt;stroke-linejoin:miter;stroke-opacity:1" />
      <path
         sodipodi:nodetypes="ccccc"
         id="path31811"
         d="M 274.65635,262.49996 L 274.5001,263.49996 L 344.56743,279.09497 L 343.3126,273.15621 L 274.65635,262.49996 z "
         style="fill:#000100;fill-opacity:1;fill-rule:evenodd;stroke:black;stroke-width:3;stroke-linecap:butt;stroke-linejoin:miter;stroke-miterlimit:4;stroke-dasharray:none;stroke-opacity:1" />
      <path
         sodipodi:nodetypes="cscccccssscscccsc"
         id="path28248"
         d="M 405.63166,140.0776 C 376.57481,140.0776 353.01135,147.05847 353.01135,155.65517 C 353.01135,162.80176 370.7191,175.71253 392.91063,177.54263 L 391.16001,275.2647 L 371.9986,285.05592 C 348.92013,279.16688 339.25555,264.55922 339.00406,255.74704 C 338.69534,244.92984 327.17485,176.03898 325.96727,166.27442 L 340.60256,269.33435 C 351.42077,345.51488 371.7006,443.87234 406.73558,436.66479 C 443.82212,429.03519 457.34073,337.19872 470.60809,276.017 C 473.5931,262.25197 484.18086,175.96052 487.40593,166.60699 C 484.49874,175.82428 475.0314,241.91169 473.23036,254.46696 C 472.54222,259.26407 465.0143,276.63177 439.56277,285.95013 L 419.36737,276.08186 L 416.23211,176.15803 C 438.75868,174.39375 458.25197,162.87221 458.25197,155.65517 C 458.25197,147.05843 434.68851,140.07756 405.63166,140.0776 z "
         style="fill:white;fill-opacity:1;fill-rule:evenodd;stroke:black;stroke-width:3;stroke-linecap:round;stroke-linejoin:round;stroke-miterlimit:4;stroke-dasharray:none;stroke-opacity:1" />
      <path
         sodipodi:nodetypes="cccccccc"
         id="path31809"
         d="M 416.24527,177.52282 L 415.6876,177.68746 L 419.46862,276.80271 L 438.71403,285.31246 L 440.8126,196.18746 L 440.8126,195.49996 L 440.3126,195.03121 L 416.24527,177.52282 z "
         style="fill:white;fill-opacity:1;fill-rule:evenodd;stroke:black;stroke-width:3;stroke-linecap:butt;stroke-linejoin:miter;stroke-miterlimit:4;stroke-dasharray:none;stroke-opacity:1" />
      <path
         style="fill:white;fill-opacity:1;fill-rule:evenodd;stroke:black;stroke-width:3;stroke-linecap:butt;stroke-linejoin:miter;stroke-miterlimit:4;stroke-dasharray:none;stroke-opacity:1"
         d="M 394.27297,177.52282 L 394.83064,177.68746 L 391.04962,277.27502 L 373.92083,284.60693 L 369.70564,196.18746 L 369.70564,195.49996 L 370.20564,195.03121 L 394.27297,177.52282 z "
         id="path43383"
         sodipodi:nodetypes="cccccccc" />
    </g>
  </g>
  <g
     inkscape:groupmode="layer"
     id="layer3"
     inkscape:label="Reflet final"
     style="display:inline"
     sodipodi:insensitive="true">
    <path
       style="fill:url(#radialGradient3236);fill-opacity:1"
       d="M 1.5,1.5 L 1.5,460.3679 C 1.5,626.67854 135.81454,761.5 301.49993,761.5 C 467.1854,761.5 601.5,626.67854 601.5,460.3679 L 601.5,1.5 L 1.5,1.5 z "
       id="path2346" />
  </g>
  <g
     inkscape:groupmode="layer"
     id="layer4"
     inkscape:label="Contour final"
     style="display:inline"
     sodipodi:insensitive="true">
    <path
       style="fill:none;fill-opacity:1;stroke:#000000;stroke-width:3;stroke-miterlimit:4;stroke-dasharray:none;stroke-opacity:1"
       d="M 1.5,1.5 L 1.5,460.36794 C 1.5,626.67854 135.81454,761.5 301.49993,761.5 C 467.1854,761.5 601.5,626.67854 601.5,460.36794 L 601.5,1.5 L 1.5,1.5 z "
       id="path3239" />
  </g>
</svg>

<?xml version="1.0" encoding="UTF-8"?>
<svg version="1.0" viewBox="0 0 603 763" xmlns="http://www.w3.org/2000/svg" xmlns:cc="http://web.resource.org/cc/" xmlns:dc="http://purl.org/dc/elements/1.1/" xmlns:rdf="http://www.w3.org/1999/02/22-rdf-syntax-ns#" xmlns:xlink="http://www.w3.org/1999/xlink">
<metadata>
<rdf:RDF>
<cc:Work rdf:about="">
<dc:format>image/svg+xml</dc:format>
<dc:type rdf:resource="http://purl.org/dc/dcmitype/StillImage"/>
<dc:date>07-AUG-2006</dc:date>
<dc:creator>
<cc:Agent>
<dc:title>Jérôme BLUM (wagner51)</dc:title>
</cc:Agent>
</dc:creator>
<cc:license rdf:resource="http://creativecommons.org/licenses/GPL/2.0/"/>
<dc:coverage/>
<dc:description>Gabarit pour le Projet:Blasons de WIkipédia</dc:description>
<dc:subject>
<rdf:Bag>
<rdf:li>blason suisse modèle gabarit projet blasons</rdf:li>
</rdf:Bag>
</dc:subject>
<dc:language>fr</dc:language>
<dc:title>Gabrit d'un blason suisse</dc:title>
</cc:Work>
<cc:License rdf:about="http://creativecommons.org/licenses/GPL/2.0/">
<cc:permits rdf:resource="http://web.resource.org/cc/Reproduction"/>
<cc:permits rdf:resource="http://web.resource.org/cc/Distribution"/>
<cc:requires rdf:resource="http://web.resource.org/cc/Notice"/>
<cc:permits rdf:resource="http://web.resource.org/cc/DerivativeWorks"/>
<cc:requires rdf:resource="http://web.resource.org/cc/ShareAlike"/>
<cc:requires rdf:resource="http://web.resource.org/cc/SourceCode"/>
</cc:License>
</rdf:RDF>
</metadata>
<defs>
<radialGradient id="a" cx="858.04" cy="579.93" r="300" gradientTransform="matrix(1.215 1.5316e-24 1.4647e-23 1.2667 -839.19 -490.49)" gradientUnits="userSpaceOnUse">
<stop stop-color="#fff" stop-opacity=".31373" offset="0"/>
<stop stop-color="#fff" stop-opacity=".25098" offset=".19"/>
<stop stop-color="#6b6b6b" stop-opacity=".12549" offset=".6"/>
<stop stop-opacity=".12549" offset="1"/>
</radialGradient>
</defs>
<desc>Coat of Arms of Canton of Freiburg (Fribourg)</desc>
<path d="m1.5 1.5v458.87c0 166.31 134.31 301.13 300 301.13 165.69 0 300-134.82 300-301.13v-458.87h-600z" fill="#2b5df2"/>
<g fill-rule="evenodd">
<g transform="matrix(-2.843 0 0 3.7095 2212 -824.21)" stroke="#000">
<path d="m735 323.73v-5.732c97.088-54.768-33.723-122.06-55-40 18.906-28.755 88.898-6.6109 30.366 37.804l6.098 7.9279h18.536z" fill="#fff" stroke-width="1px"/>
<g fill="#fcef3c">
<path d="m716.83 332.63s-7.5311 46.029-8.2938 60.366c-0.90553 17.02 35.622 17.292 34.634 0-0.78914-13.808-9.634-60-9.634-60l-16.706-0.36598z" stroke-width="1px"/>
<rect x="708.59" y="323.09" width="33.828" height="12.726" ry="6.3628" stroke-linecap="round" stroke-linejoin="round"/>
</g>
</g>
<g transform="matrix(1.1967 0 0 1.2366 -79.952 -88.648)">
<path d="m326.41 163 14.939 94.939 130 0.82801 13.65-95.767-84.111 26.472-74.478-26.472z" fill="#fff" stroke="#000" stroke-width="1px"/>
<path d="m260.5 257.24c12.922 201.1 71.233 282.77 142.92 365.26 118.03-117.58 129.32-239.65 145.93-368.03l-288.84 2.7693z" fill="#fff" stroke="#000" stroke-width="3"/>
<path transform="matrix(3.9251 0 0 3.775 -2699.2 -1088.9)" d="m811.72 331.21a20.637 9.8775 0 1 1-41.274 0 20.637 9.8775 0 1 1 41.274 0z" fill="#fff" stroke="#000" stroke-linecap="round" stroke-linejoin="round" stroke-width=".77936"/>
<path d="m535.88 262.5-65.125 9.9375-5.488 6.6443 70.769-15.582-0.15625-1z" stroke="#000" stroke-width="3"/>
<path d="m340 246.29c0.1384 10.611 0.84698 12.504 3.5361 20.484l125.86-0.12376c1.6551-4.8002 2.5362-13.656 2.8041-19.263l-132.2-1.098z" fill="#fff" stroke="#fff" stroke-width="1px"/>
<path d="m274.66 262.5-0.15625 1 70.067 15.595-1.2548-5.9388-68.656-10.656z" fill="#000100" stroke="#000" stroke-width="3"/>
<path d="m405.63 140.08c-29.057 0-52.62 6.9809-52.62 15.578 0 7.1466 17.708 20.057 39.899 21.887l-1.7506 97.722-19.161 9.7912c-23.078-5.889-32.743-20.497-32.995-29.309-0.30872-10.817-11.829-79.708-13.037-89.473l14.635 103.06c10.818 76.181 31.098 174.54 66.133 167.33 37.087-7.6296 50.605-99.466 63.873-160.65 2.985-13.765 13.573-100.06 16.798-109.41-2.9072 9.2173-12.375 75.305-14.176 87.86-0.68814 4.7971-8.2161 22.165-33.668 31.483l-20.195-9.8683-3.1353-99.924c22.527-1.7643 42.02-13.286 42.02-20.503 0-8.5967-23.563-15.578-52.62-15.578z" fill="#fff" stroke="#000" stroke-linecap="round" stroke-linejoin="round" stroke-width="3"/>
<path d="m416.25 177.52-0.55767 0.16464 3.781 99.115 19.245 8.5098 2.0986-89.125v-0.6875l-0.5-0.46875-24.067-17.508z" fill="#fff" stroke="#000" stroke-width="3"/>
<path d="m394.27 177.52 0.55767 0.16464-3.781 99.588-17.129 7.3319-4.2152-88.419v-0.6875l0.5-0.46875 24.067-17.508z" fill="#fff" stroke="#000" stroke-width="3"/>
</g>
</g>
<g>
<path d="m1.5 1.5v458.87c0 166.31 134.31 301.13 300 301.13 165.69 0 300-134.82 300-301.13v-458.87h-600z" fill="url(#a)"/>
<path d="m1.5 1.5v458.87c0 166.31 134.31 301.13 300 301.13 165.69 0 300-134.82 300-301.13v-458.87h-600z" fill="none" stroke="#000" stroke-width="3"/>
</g>
</svg>
